!!!COM: Music21
!!!OTL: march_March-To-The-98--The
!!!OMV: march_March-To-The-98--The
**kern
*clefG2
*k[f#]
*G:
*M4/4
=1
8.gL
16aJk
=
8bL
8eJ
8gL
8bJ
4ee
8.eeL
16ff#Jk
=
8ggL
8bJ
8cc#XL
8ddJ
8eeL
8aJ
8bL
8ccnJ
=
8.ddL
16cc#XJk
8ddL
8eeJ
8ff#L
8ddJ
8eeL
8ccnJ
=
8ddL
8bJ
8aL
8gJ
4f#
8.bL
16aJk
!!linebreak:original
=
8gL
8eJ
8eL
8gJ
4b
8.eeL
16ff#Jk
=
8ggL
8bJ
8cc#XL
8ddJ
8eeL
8ggJ
8ff#L
8eeJ
=
4dd
8.ddL
16eeJk
8ff#L
8ddJ
8eeL
8cc#XJ
=
4dd
8.ddL
16cc#XJk
4dd
4r
=||
*M4/4
8.gL
16aJk
!!linebreak:original
=
8bL
8eJ
8gL
8bJ
4ee
8.eeL
16ff#Jk
=
8ggL
8bJ
8cc#XL
8ddJ
8eeL
8aJ
8bL
8ccnJ
=
8.ddL
16cc#XJk
8ddL
8eeJ
8ff#L
8ddJ
8eeL
8ccnJ
=
8ddL
8bJ
8aL
8gJ
4f#
8.bL
16aJk
=
8gL
8eJ
8eL
8gJ
4b
8.eeL
16ff#Jk
!!linebreak:original
=
8ggL
8bJ
8cc#XL
8ddJ
8eeL
8ggJ
8ff#L
8eeJ
=
4dd
8.ddL
16eeJk
8ff#L
8ddJ
8eeL
8cc#XJ
=
4dd
8.ddL
16cc#XJk
4dd
4r
=||
8eeL
8ff#J
2.ryy
=
4gg
8.ggL
16aaJk
8ggL
8ddJ
8bL
8gJ
=
8f#L
8gJ
8aL
8bJ
4cc
8aL
8f#J
!!linebreak:original
=
4d
8.dL
16eJk
8f#L
8dJ
8f#L
8aJ
=
8ddL
8ggJ
8ff#L
8eeJ
4dd
8eeL
8ff#J
=
4gg
8.ggL
16aaJk
8bbL
8ggJ
8ddL
8bJ
=
8aL
8gJ
8aL
8bJ
4cc
8.aaL
16ggJk
=
8ff#L
8eeJ
8ddL
8cc#XJ
8ccnL
8aJ
8dL
8f#J
!!linebreak:original
=
4a
8.gL
16f#Jk
4g
4r
=||
8eeL
8ff#J
2.ryy
=
4gg
8.ggL
16aaJk
8ggL
8ddJ
8bL
8gJ
=
8f#L
8gJ
8aL
8bJ
4cc
8aL
8f#J
=
4d
8.dL
16eJk
8f#L
8dJ
8f#L
8aJ
=
8ddL
8ggJ
8ff#L
8eeJ
4dd
8eeL
8ff#J
!!linebreak:original
=
4gg
8.ggL
16aaJk
8bbL
8ggJ
8ddL
8bJ
=
8aL
8gJ
8aL
8bJ
4cc
8.aaL
16ggJk
=
8ff#L
8eeJ
8ddL
8cc#XJ
8ccnL
8aJ
8dL
8f#J
=
4a
8.gL
16f#Jk
4g
4r
=||
*-
